material/.icons/material/rotate-orbit.svg

<svg xmlns="http://www.w3.org/2000/svg" viewBox="0 0 24 24"><path d="M8 14.25L4.75 11H7c.25-5.61 2.39-10 5-10 2 0 3.77 2.64 4.55 6.45C20.36 8.23 23 10 23 12c0 1.83-2.17 3.43-5.4 4.3l.29-2.03C19.8 13.72 21 12.91 21 12c0-1.06-1.65-2-4.13-2.5.08.79.13 1.63.13 2.5 0 6.08-2.24 11-5 11-1.83 0-3.43-2.17-4.3-5.4l2.03.29C10.28 19.8 11.09 21 12 21c1.66 0 3-4.03 3-9 0-1-.05-1.95-.15-2.85C13.95 9.05 13 9 12 9l-1.86.06.29-2.01L12 7c.87 0 1.71.05 2.5.13C14 4.65 13.06 3 12 3c-1.54 0-2.82 3.5-3 8h2.25L8 14.25M14.25 16L11 19.25V17c-5.61-.25-10-2.39-10-5 0-1.83 2.17-3.43 5.4-4.3l-.29 2.03C4.2 10.28 3 11.09 3 12c0 1.54 3.5 2.82 8 3v-2.25L14.25 16z"/></svg>

<?xml version="1.0" encoding="UTF-8"?><!DOCTYPE svg PUBLIC "-//W3C//DTD SVG 1.1//EN" "http://www.w3.org/Graphics/SVG/1.1/DTD/svg11.dtd"><svg xmlns="http://www.w3.org/2000/svg" xmlns:xlink="http://www.w3.org/1999/xlink" version="1.1" id="mdi-rotate-orbit" width="24" height="24" viewBox="0 0 24 24"><path d="M8,14.25L4.75,11H7C7.25,5.39 9.39,1 12,1C14,1 15.77,3.64 16.55,7.45C20.36,8.23 23,10 23,12C23,13.83 20.83,15.43 17.6,16.3L17.89,14.27C19.8,13.72 21,12.91 21,12C21,10.94 19.35,10 16.87,9.5C16.95,10.29 17,11.13 17,12C17,18.08 14.76,23 12,23C10.17,23 8.57,20.83 7.7,17.6L9.73,17.89C10.28,19.8 11.09,21 12,21C13.66,21 15,16.97 15,12C15,11 14.95,10.05 14.85,9.15C13.95,9.05 13,9 12,9L10.14,9.06L10.43,7.05L12,7C12.87,7 13.71,7.05 14.5,7.13C14,4.65 13.06,3 12,3C10.46,3 9.18,6.5 9,11H11.25L8,14.25M14.25,16L11,19.25V17C5.39,16.75 1,14.61 1,12C1,10.17 3.17,8.57 6.4,7.7L6.11,9.73C4.2,10.28 3,11.09 3,12C3,13.54 6.5,14.82 11,15V12.75L14.25,16Z" /></svg>
